P2
   66    98
255
00
00
00
00
00
00
00
00
00
00
00
00
00
00
00
00
00
00
00
00
00
00
00
00
00
00
00
00
00
00
00
00
00
00
00
00
00
00
00
00
00
00
00
00
00
00
00
00
00
00
00
00
00
00
00
00
00
00
00
00
00
00
00
00
00
00
00
00
00
00
00
00
00
00
00
00
00
00
00
00
00
00
00
00
00
00
00
00
00
00
00
00
00
00
00
00
00
00
03
03
03
03
03
03
03
03
03
03
03
03
03
03
03
03
03
03
03
03
03
03
03
03
03
03
03
03
03
03
03
03
03
03
03
03
03
03
03
03
03
03
03
03
03
03
03
03
03
03
03
03
03
03
03
03
03
03
03
03
03
03
03
03
03
03
03
03
03
03
03
03
03
03
03
03
03
03
03
03
03
03
03
03
03
03
03
03
03
03
03
03
03
03
03
03
03
03
07
07
07
07
07
07
07
07
07
07
07
07
07
07
07
07
07
07
07
07
07
07
07
07
07
07
07
07
07
07
07
07
07
07
07
07
07
07
07
07
07
07
07
07
07
07
07
07
07
07
07
07
07
07
07
07
07
07
07
07
07
07
07
07
07
07
07
07
07
07
07
07
07
07
07
07
07
07
07
07
07
07
07
07
07
07
07
07
07
07
07
07
07
07
07
07
07
07
0b
0b
0b
0b
0b
0b
0b
0b
0b
0b
0b
0b
0b
0b
0b
0b
0b
0b
0b
0b
0b
0b
0b
0b
0b
0b
0b
0b
0b
0b
0b
0b
0b
0b
0b
0b
0b
0b
0b
0b
0b
0b
0b
0b
0b
0b
0b
0b
0b
0b
0b
0b
0b
0b
0b
0b
0b
0b
0b
0b
0b
0b
0b
0b
0b
0b
0b
0b
0b
0b
0b
0b
0b
0b
0b
0b
0b
0b
0b
0b
0b
0b
0b
0b
0b
0b
0b
0b
0b
0b
0b
0b
0b
0b
0b
0b
0b
0b
0f
0f
0f
0f
0f
0f
0f
0f
0f
0f
0f
0f
0f
0f
0f
0f
0f
0f
0f
0f
0f
0f
0f
0f
0f
0f
0f
0f
0f
0f
0f
0f
0f
0f
0f
0f
0f
0f
0f
0f
0f
0f
0f
0f
0f
0f
0f
0f
0f
0f
0f
0f
0f
0f
0f
0f
0f
0f
0f
0f
0f
0f
0f
0f
0f
0f
0f
0f
0f
0f
0f
0f
0f
0f
0f
0f
0f
0f
0f
0f
0f
0f
0f
0f
0f
0f
0f
0f
0f
0f
0f
0f
0f
0f
0f
0f
0f
0f
13
13
13
13
13
13
13
13
13
13
13
13
13
13
13
13
13
13
13
13
13
13
13
13
13
13
13
13
13
13
13
13
13
13
13
13
13
13
13
13
13
13
13
13
13
13
13
13
13
13
13
13
13
13
13
13
13
13
13
13
13
13
13
13
13
13
13
13
13
13
13
13
13
13
13
13
13
13
13
13
13
13
13
13
13
13
13
13
13
13
13
13
13
13
13
13
13
13
17
17
17
17
17
17
17
17
17
17
17
17
17
17
17
17
17
17
17
17
17
17
17
17
17
17
17
17
17
17
17
17
17
17
17
17
17
17
17
17
17
17
17
17
17
17
17
17
17
17
17
17
17
17
17
17
17
17
17
17
17
17
17
17
17
17
17
17
17
17
17
17
17
17
17
17
17
17
17
17
17
17
17
17
17
17
17
17
17
17
17
17
17
17
17
17
17
17
1b
1b
1b
1b
1b
1b
1b
1b
1b
1b
1b
1b
1b
1b
1b
1b
1b
1b
1b
1b
1b
1b
1b
1b
1b
1b
1b
1b
1b
1b
1b
1b
1b
1b
1b
1b
1b
1b
1b
1b
1b
1b
1b
1b
1b
1b
1b
1b
1b
1b
1b
1b
1b
1b
1b
1b
1b
1b
1b
1b
1b
1b
1b
1b
1b
1b
1b
1b
1b
1b
1b
1b
1b
1b
1b
1b
1b
1b
1b
1b
1b
1b
1b
1b
1b
1b
1b
1b
1b
1b
1b
1b
1b
1b
1b
1b
1b
1b
1f
1f
1f
1f
1f
1f
1f
1f
1f
1f
1f
1f
1f
1f
1f
1f
1f
1f
1f
1f
1f
1f
1f
1f
1f
1f
1f
1f
1f
1f
1f
1f
1f
1f
1f
1f
1f
1f
1f
1f
1f
1f
1f
1f
1f
1f
1f
1f
1f
1f
1f
1f
1f
1f
1f
1f
1f
1f
1f
1f
1f
1f
1f
1f
1f
1f
1f
1f
1f
1f
1f
1f
1f
1f
1f
1f
1f
1f
1f
1f
1f
1f
1f
1f
1f
1f
1f
1f
1f
1f
1f
1f
1f
1f
1f
1f
1f
1f
23
23
23
23
23
23
23
23
23
23
23
23
23
23
23
23
23
23
23
23
23
23
23
23
23
23
23
23
23
23
23
23
23
23
23
23
23
23
23
23
23
23
23
23
23
23
23
23
23
23
23
23
23
23
23
23
23
23
23
23
23
23
23
23
23
23
23
23
23
23
23
23
23
23
23
23
23
23
23
23
23
23
23
23
23
23
23
23
23
23
23
23
23
23
23
23
23
23
27
27
27
27
27
27
27
27
27
27
27
27
27
27
27
27
27
27
27
27
27
27
27
27
27
27
27
27
27
27
27
27
27
27
27
27
27
27
27
27
27
27
27
27
27
27
27
27
27
27
27
27
27
27
27
27
27
27
27
27
27
27
27
27
27
27
27
27
27
27
27
27
27
27
27
27
27
27
27
27
27
27
27
27
27
27
27
27
27
27
27
27
27
27
27
27
27
27
2b
2b
2b
2b
2b
2b
2b
2b
2b
2b
2b
2b
2b
2b
2b
2b
2b
2b
2b
2b
2b
2b
2b
2b
2b
2b
2b
2b
2b
2b
2b
2b
2b
2b
2b
2b
2b
2b
2b
2b
2b
2b
2b
2b
2b
2b
2b
2b
2b
2b
2b
2b
2b
2b
2b
2b
2b
2b
2b
2b
2b
2b
2b
2b
2b
2b
2b
2b
2b
2b
2b
2b
2b
2b
2b
2b
2b
2b
2b
2b
2b
2b
2b
2b
2b
2b
2b
2b
2b
2b
2b
2b
2b
2b
2b
2b
2b
2b
2f
2f
2f
2f
2f
2f
2f
2f
2f
2f
2f
2f
2f
2f
2f
2f
2f
2f
2f
2f
2f
2f
2f
2f
2f
2f
2f
2f
2f
2f
2f
2f
2f
2f
2f
2f
2f
2f
2f
2f
2f
2f
2f
2f
2f
2f
2f
2f
2f
2f
2f
2f
2f
2f
2f
2f
2f
2f
2f
2f
2f
2f
2f
2f
2f
2f
2f
2f
2f
2f
2f
2f
2f
2f
2f
2f
2f
2f
2f
2f
2f
2f
2f
2f
2f
2f
2f
2f
2f
2f
2f
2f
2f
2f
2f
2f
2f
2f
33
33
33
33
33
33
33
33
33
33
33
33
33
33
33
33
33
33
33
33
33
33
33
33
33
33
33
33
33
33
33
33
33
33
33
33
33
33
33
33
33
33
33
33
33
33
33
33
33
33
33
33
33
33
33
33
33
33
33
33
33
33
33
33
33
33
33
33
33
33
33
33
33
33
33
33
33
33
33
33
33
33
33
33
33
33
33
33
33
33
33
33
33
33
33
33
33
33
36
36
36
36
36
36
36
36
36
36
36
36
36
36
36
36
36
36
36
36
36
36
36
36
36
36
36
36
36
36
36
36
36
36
36
36
36
36
36
36
36
36
36
36
36
36
36
36
36
36
36
36
36
36
36
36
36
36
36
36
36
36
36
36
36
36
36
36
36
36
36
36
36
36
36
36
36
36
36
36
36
36
36
36
36
36
36
36
36
36
36
36
36
36
36
36
36
36
3a
3a
3a
3a
3a
3a
3a
3a
3a
3a
3a
3a
3a
3a
3a
3a
3a
3a
3a
3a
3a
3a
3a
3a
3a
3a
3a
3a
3a
3a
3a
3a
3a
3a
3a
3a
3a
3a
3a
3a
3a
3a
3a
3a
3a
3a
3a
3a
3a
3a
3a
3a
3a
3a
3a
3a
3a
3a
3a
3a
3a
3a
3a
3a
3a
3a
3a
3a
3a
3a
3a
3a
3a
3a
3a
3a
3a
3a
3a
3a
3a
3a
3a
3a
3a
3a
3a
3a
3a
3a
3a
3a
3a
3a
3a
3a
3a
3a
3e
3e
3e
3e
3e
3e
3e
3e
3e
3e
3e
3e
3e
3e
3e
3e
3e
3e
3e
3e
3e
3e
3e
3e
3e
3e
3e
3e
3e
3e
3e
3e
3e
3e
3e
3e
3e
3e
3e
3e
3e
3e
3e
3e
3e
3e
3e
3e
3e
3e
3e
3e
3e
3e
3e
3e
3e
3e
3e
3e
3e
3e
3e
3e
3e
3e
3e
3e
3e
3e
3e
3e
3e
3e
3e
3e
3e
3e
3e
3e
3e
3e
3e
3e
3e
3e
3e
3e
3e
3e
3e
3e
3e
3e
3e
3e
3e
3e
42
42
42
42
42
42
42
42
42
42
42
42
42
42
42
42
42
42
42
42
42
42
42
42
42
42
42
42
42
42
42
42
42
42
42
42
42
42
42
42
42
42
42
42
42
42
42
42
42
42
42
42
42
42
42
42
42
42
42
42
42
42
42
42
42
42
42
42
42
42
42
42
42
42
42
42
42
42
42
42
42
42
42
42
42
42
42
42
42
42
42
42
42
42
42
42
42
42
46
46
46
46
46
46
46
46
46
46
46
46
46
46
46
46
46
46
46
46
46
46
46
46
46
46
46
46
46
46
46
46
46
46
46
46
46
46
46
46
46
46
46
46
46
46
46
46
46
46
46
46
46
46
46
46
46
46
46
46
46
46
46
46
46
46
46
46
46
46
46
46
46
46
46
46
46
46
46
46
46
46
46
46
46
46
46
46
46
46
46
46
46
46
46
46
46
46
4a
4a
4a
4a
4a
4a
4a
4a
4a
4a
4a
4a
4a
4a
4a
4a
4a
4a
4a
4a
4a
4a
4a
4a
4a
4a
4a
4a
4a
4a
4a
4a
4a
4a
4a
4a
4a
4a
4a
4a
4a
4a
4a
4a
4a
4a
4a
4a
4a
4a
4a
4a
4a
4a
4a
4a
4a
4a
4a
4a
4a
4a
4a
4a
4a
4a
4a
4a
4a
4a
4a
4a
4a
4a
4a
4a
4a
4a
4a
4a
4a
4a
4a
4a
4a
4a
4a
4a
4a
4a
4a
4a
4a
4a
4a
4a
4a
4a
4e
4e
4e
4e
4e
4e
4e
4e
4e
4e
4e
4e
4e
4e
4e
4e
4e
4e
4e
4e
4e
4e
4e
4e
4e
4e
4e
4e
4e
4e
4e
4e
4e
4e
4e
4e
4e
4e
4e
4e
4e
4e
4e
4e
4e
4e
4e
4e
4e
4e
4e
4e
4e
4e
4e
4e
4e
4e
4e
4e
4e
4e
4e
4e
4e
4e
4e
4e
4e
4e
4e
4e
4e
4e
4e
4e
4e
4e
4e
4e
4e
4e
4e
4e
4e
4e
4e
4e
4e
4e
4e
4e
4e
4e
4e
4e
4e
4e
52
52
52
52
52
52
52
52
52
52
52
52
52
52
52
52
52
52
52
52
52
52
52
52
52
52
52
52
52
52
52
52
52
52
52
52
52
52
52
52
52
52
52
52
52
52
52
52
52
52
52
52
52
52
52
52
52
52
52
52
52
52
52
52
52
52
52
52
52
52
52
52
52
52
52
52
52
52
52
52
52
52
52
52
52
52
52
52
52
52
52
52
52
52
52
52
52
52
56
56
56
56
56
56
56
56
56
56
56
56
56
56
56
56
56
56
56
56
56
56
56
56
56
56
56
56
56
56
56
56
56
56
56
56
56
56
56
56
56
56
56
56
56
56
56
56
56
56
56
56
56
56
56
56
56
56
56
56
56
56
56
56
56
56
56
56
56
56
56
56
56
56
56
56
56
56
56
56
56
56
56
56
56
56
56
56
56
56
56
56
56
56
56
56
56
56
5a
5a
5a
5a
5a
5a
5a
5a
5a
5a
5a
5a
5a
5a
5a
5a
5a
5a
5a
5a
5a
5a
5a
5a
5a
5a
5a
5a
5a
5a
5a
5a
5a
5a
5a
5a
5a
5a
5a
5a
5a
5a
5a
5a
5a
5a
5a
5a
5a
5a
5a
5a
5a
5a
5a
5a
5a
5a
5a
5a
5a
5a
5a
5a
5a
5a
5a
5a
5a
5a
5a
5a
5a
5a
5a
5a
5a
5a
5a
5a
5a
5a
5a
5a
5a
5a
5a
5a
5a
5a
5a
5a
5a
5a
5a
5a
5a
5a
5e
5e
5e
5e
5e
5e
5e
5e
5e
5e
5e
5e
5e
5e
5e
5e
5e
5e
5e
5e
5e
5e
5e
5e
5e
5e
5e
5e
5e
5e
5e
5e
5e
5e
5e
5e
5e
5e
5e
5e
5e
5e
5e
5e
5e
5e
5e
5e
5e
5e
5e
5e
5e
5e
5e
5e
5e
5e
5e
5e
5e
5e
5e
5e
5e
5e
5e
5e
5e
5e
5e
5e
5e
5e
5e
5e
5e
5e
5e
5e
5e
5e
5e
5e
5e
5e
5e
5e
5e
5e
5e
5e
5e
5e
5e
5e
5e
5e
62
62
62
62
62
62
62
62
62
62
62
62
62
62
62
62
62
62
62
62
62
62
62
62
62
62
62
62
62
62
62
62
62
62
62
62
62
62
62
62
62
62
62
62
62
62
62
62
62
62
62
62
62
62
62
62
62
62
62
62
62
62
62
62
62
62
62
62
62
62
62
62
62
62
62
62
62
62
62
62
62
62
62
62
62
62
62
62
62
62
62
62
62
62
62
62
62
62
66
66
66
66
66
66
66
66
66
66
66
66
66
66
66
66
66
66
66
66
66
66
66
66
66
66
66
66
66
66
66
66
66
66
66
66
66
66
66
66
66
66
66
66
66
66
66
66
66
66
66
66
66
66
66
66
66
66
66
66
66
66
66
66
66
66
66
66
66
66
66
66
66
66
66
66
66
66
66
66
66
66
66
66
66
66
66
66
66
66
66
66
66
66
66
66
66
66
69
69
69
69
69
69
69
69
69
69
69
69
69
69
69
69
69
69
69
69
69
69
69
69
69
69
69
69
69
69
69
69
69
69
69
69
69
69
69
69
69
69
69
69
69
69
69
69
69
69
69
69
69
69
69
69
69
69
69
69
69
69
69
69
69
69
69
69
69
69
69
69
69
69
69
69
69
69
69
69
69
69
69
69
69
69
69
69
69
69
69
69
69
69
69
69
69
69
6d
6d
6d
6d
6d
6d
6d
6d
6d
6d
6d
6d
6d
6d
6d
6d
6d
6d
6d
6d
6d
6d
6d
6d
6d
6d
6d
6d
6d
6d
6d
6d
6d
6d
6d
6d
6d
6d
6d
6d
6d
6d
6d
6d
6d
6d
6d
6d
6d
6d
6d
6d
6d
6d
6d
6d
6d
6d
6d
6d
6d
6d
6d
6d
6d
6d
6d
6d
6d
6d
6d
6d
6d
6d
6d
6d
6d
6d
6d
6d
6d
6d
6d
6d
6d
6d
6d
6d
6d
6d
6d
6d
6d
6d
6d
6d
6d
6d
71
71
71
71
71
71
71
71
71
71
71
71
71
71
71
71
71
71
71
71
71
71
71
71
71
71
71
71
71
71
71
71
71
71
71
71
71
71
71
71
71
71
71
71
71
71
71
71
71
71
71
71
71
71
71
71
71
71
71
71
71
71
71
71
71
71
71
71
71
71
71
71
71
71
71
71
71
71
71
71
71
71
71
71
71
71
71
71
71
71
71
71
71
71
71
71
71
71
75
75
75
75
75
75
75
75
75
75
75
75
75
75
75
75
75
75
75
75
75
75
75
75
75
75
75
75
75
75
75
75
75
75
75
75
75
75
75
75
75
75
75
75
75
75
75
75
75
75
75
75
75
75
75
75
75
75
75
75
75
75
75
75
75
75
75
75
75
75
75
75
75
75
75
75
75
75
75
75
75
75
75
75
75
75
75
75
75
75
75
75
75
75
75
75
75
75
79
79
79
79
79
79
79
79
79
79
79
79
79
79
79
79
79
79
79
79
79
79
79
79
79
79
79
79
79
79
79
79
79
79
79
79
79
79
79
79
79
79
79
79
79
79
79
79
79
79
79
79
79
79
79
79
79
79
79
79
79
79
79
79
79
79
79
79
79
79
79
79
79
79
79
79
79
79
79
79
79
79
79
79
79
79
79
79
79
79
79
79
79
79
79
79
79
79
7d
7d
7d
7d
7d
7d
7d
7d
7d
7d
7d
7d
7d
7d
7d
7d
7d
7d
7d
7d
7d
7d
7d
7d
7d
7d
7d
7d
7d
7d
7d
7d
7d
7d
7d
7d
7d
7d
7d
7d
7d
7d
7d
7d
7d
7d
7d
7d
7d
7d
7d
7d
7d
7d
7d
7d
7d
7d
7d
7d
7d
7d
7d
7d
7d
7d
7d
7d
7d
7d
7d
7d
7d
7d
7d
7d
7d
7d
7d
7d
7d
7d
7d
7d
7d
7d
7d
7d
7d
7d
7d
7d
7d
7d
7d
7d
7d
7d
81
81
81
81
81
81
81
81
81
81
81
81
81
81
81
81
81
81
81
81
81
81
81
81
81
81
81
81
81
81
81
81
81
81
81
81
81
81
81
81
81
81
81
81
81
81
81
81
81
81
81
81
81
81
81
81
81
81
81
81
81
81
81
81
81
81
81
81
81
81
81
81
81
81
81
81
81
81
81
81
81
81
81
81
81
81
81
81
81
81
81
81
81
81
81
81
81
81
85
85
85
85
85
85
85
85
85
85
85
85
85
85
85
85
85
85
85
85
85
85
85
85
85
85
85
85
85
85
85
85
85
85
85
85
85
85
85
85
85
85
85
85
85
85
85
85
85
85
85
85
85
85
85
85
85
85
85
85
85
85
85
85
85
85
85
85
85
85
85
85
85
85
85
85
85
85
85
85
85
85
85
85
85
85
85
85
85
85
85
85
85
85
85
85
85
85
89
89
89
89
89
89
89
89
89
89
89
89
89
89
89
89
89
89
89
89
89
89
89
89
89
89
89
89
89
89
89
89
89
89
89
89
89
89
89
89
89
89
89
89
89
89
89
89
89
89
89
89
89
89
89
89
89
89
89
89
89
89
89
89
89
89
89
89
89
89
89
89
89
89
89
89
89
89
89
89
89
89
89
89
89
89
89
89
89
89
89
89
89
89
89
89
89
89
8d
8d
8d
8d
8d
8d
8d
8d
8d
8d
8d
8d
8d
8d
8d
8d
8d
8d
8d
8d
8d
8d
8d
8d
8d
8d
8d
8d
8d
8d
8d
8d
8d
8d
8d
8d
8d
8d
8d
8d
8d
8d
8d
8d
8d
8d
8d
8d
8d
8d
8d
8d
8d
8d
8d
8d
8d
8d
8d
8d
8d
8d
8d
8d
8d
8d
8d
8d
8d
8d
8d
8d
8d
8d
8d
8d
8d
8d
8d
8d
8d
8d
8d
8d
8d
8d
8d
8d
8d
8d
8d
8d
8d
8d
8d
8d
8d
8d
91
91
91
91
91
91
91
91
91
91
91
91
91
91
91
91
91
91
91
91
91
91
91
91
91
91
91
91
91
91
91
91
91
91
91
91
91
91
91
91
91
91
91
91
91
91
91
91
91
91
91
91
91
91
91
91
91
91
91
91
91
91
91
91
91
91
91
91
91
91
91
91
91
91
91
91
91
91
91
91
91
91
91
91
91
91
91
91
91
91
91
91
91
91
91
91
91
91
95
95
95
95
95
95
95
95
95
95
95
95
95
95
95
95
95
95
95
95
95
95
95
95
95
95
95
95
95
95
95
95
95
95
95
95
95
95
95
95
95
95
95
95
95
95
95
95
95
95
95
95
95
95
95
95
95
95
95
95
95
95
95
95
95
95
95
95
95
95
95
95
95
95
95
95
95
95
95
95
95
95
95
95
95
95
95
95
95
95
95
95
95
95
95
95
95
95
99
99
99
99
99
99
99
99
99
99
99
99
99
99
99
99
99
99
99
99
99
99
99
99
99
99
99
99
99
99
99
99
99
99
99
99
99
99
99
99
99
99
99
99
99
99
99
99
99
99
99
99
99
99
99
99
99
99
99
99
99
99
99
99
99
99
99
99
99
99
99
99
99
99
99
99
99
99
99
99
99
99
99
99
99
99
99
99
99
99
99
99
99
99
99
99
99
99
9c
9c
9c
9c
9c
9c
9c
9c
9c
9c
9c
9c
9c
9c
9c
9c
9c
9c
9c
9c
9c
9c
9c
9c
9c
9c
9c
9c
9c
9c
9c
9c
9c
9c
9c
9c
9c
9c
9c
9c
9c
9c
9c
9c
9c
9c
9c
9c
9c
9c
9c
9c
9c
9c
9c
9c
9c
9c
9c
9c
9c
9c
9c
9c
9c
9c
9c
9c
9c
9c
9c
9c
9c
9c
9c
9c
9c
9c
9c
9c
9c
9c
9c
9c
9c
9c
9c
9c
9c
9c
9c
9c
9c
9c
9c
9c
9c
9c
a0
a0
a0
a0
a0
a0
a0
a0
a0
a0
a0
a0
a0
a0
a0
a0
a0
a0
a0
a0
a0
a0
a0
a0
a0
a0
a0
a0
a0
a0
a0
a0
a0
a0
a0
a0
a0
a0
a0
a0
a0
a0
a0
a0
a0
a0
a0
a0
a0
a0
a0
a0
a0
a0
a0
a0
a0
a0
a0
a0
a0
a0
a0
a0
a0
a0
a0
a0
a0
a0
a0
a0
a0
a0
a0
a0
a0
a0
a0
a0
a0
a0
a0
a0
a0
a0
a0
a0
a0
a0
a0
a0
a0
a0
a0
a0
a0
a0
a4
a4
a4
a4
a4
a4
a4
a4
a4
a4
a4
a4
a4
a4
a4
a4
a4
a4
a4
a4
a4
a4
a4
a4
a4
a4
a4
a4
a4
a4
a4
a4
a4
a4
a4
a4
a4
a4
a4
a4
a4
a4
a4
a4
a4
a4
a4
a4
a4
a4
a4
a4
a4
a4
a4
a4
a4
a4
a4
a4
a4
a4
a4
a4
a4
a4
a4
a4
a4
a4
a4
a4
a4
a4
a4
a4
a4
a4
a4
a4
a4
a4
a4
a4
a4
a4
a4
a4
a4
a4
a4
a4
a4
a4
a4
a4
a4
a4
a8
a8
a8
a8
a8
a8
a8
a8
a8
a8
a8
a8
a8
a8
a8
a8
a8
a8
a8
a8
a8
a8
a8
a8
a8
a8
a8
a8
a8
a8
a8
a8
a8
a8
a8
a8
a8
a8
a8
a8
a8
a8
a8
a8
a8
a8
a8
a8
a8
a8
a8
a8
a8
a8
a8
a8
a8
a8
a8
a8
a8
a8
a8
a8
a8
a8
a8
a8
a8
a8
a8
a8
a8
a8
a8
a8
a8
a8
a8
a8
a8
a8
a8
a8
a8
a8
a8
a8
a8
a8
a8
a8
a8
a8
a8
a8
a8
a8
ac
ac
ac
ac
ac
ac
ac
ac
ac
ac
ac
ac
ac
ac
ac
ac
ac
ac
ac
ac
ac
ac
ac
ac
ac
ac
ac
ac
ac
ac
ac
ac
ac
ac
ac
ac
ac
ac
ac
ac
ac
ac
ac
ac
ac
ac
ac
ac
ac
ac
ac
ac
ac
ac
ac
ac
ac
ac
ac
ac
ac
ac
ac
ac
ac
ac
ac
ac
ac
ac
ac
ac
ac
ac
ac
ac
ac
ac
ac
ac
ac
ac
ac
ac
ac
ac
ac
ac
ac
ac
ac
ac
ac
ac
ac
ac
ac
ac
b0
b0
b0
b0
b0
b0
b0
b0
b0
b0
b0
b0
b0
b0
b0
b0
b0
b0
b0
b0
b0
b0
b0
b0
b0
b0
b0
b0
b0
b0
b0
b0
b0
b0
b0
b0
b0
b0
b0
b0
b0
b0
b0
b0
b0
b0
b0
b0
b0
b0
b0
b0
b0
b0
b0
b0
b0
b0
b0
b0
b0
b0
b0
b0
b0
b0
b0
b0
b0
b0
b0
b0
b0
b0
b0
b0
b0
b0
b0
b0
b0
b0
b0
b0
b0
b0
b0
b0
b0
b0
b0
b0
b0
b0
b0
b0
b0
b0
b4
b4
b4
b4
b4
b4
b4
b4
b4
b4
b4
b4
b4
b4
b4
b4
b4
b4
b4
b4
b4
b4
b4
b4
b4
b4
b4
b4
b4
b4
b4
b4
b4
b4
b4
b4
b4
b4
b4
b4
b4
b4
b4
b4
b4
b4
b4
b4
b4
b4
b4
b4
b4
b4
b4
b4
b4
b4
b4
b4
b4
b4
b4
b4
b4
b4
b4
b4
b4
b4
b4
b4
b4
b4
b4
b4
b4
b4
b4
b4
b4
b4
b4
b4
b4
b4
b4
b4
b4
b4
b4
b4
b4
b4
b4
b4
b4
b4
b8
b8
b8
b8
b8
b8
b8
b8
b8
b8
b8
b8
b8
b8
b8
b8
b8
b8
b8
b8
b8
b8
b8
b8
b8
b8
b8
b8
b8
b8
b8
b8
b8
b8
b8
b8
b8
b8
b8
b8
b8
b8
b8
b8
b8
b8
b8
b8
b8
b8
b8
b8
b8
b8
b8
b8
b8
b8
b8
b8
b8
b8
b8
b8
b8
b8
b8
b8
b8
b8
b8
b8
b8
b8
b8
b8
b8
b8
b8
b8
b8
b8
b8
b8
b8
b8
b8
b8
b8
b8
b8
b8
b8
b8
b8
b8
b8
b8
bc
bc
bc
bc
bc
bc
bc
bc
bc
bc
bc
bc
bc
bc
bc
bc
bc
bc
bc
bc
bc
bc
bc
bc
bc
bc
bc
bc
bc
bc
bc
bc
bc
bc
bc
bc
bc
bc
bc
bc
bc
bc
bc
bc
bc
bc
bc
bc
bc
bc
bc
bc
bc
bc
bc
bc
bc
bc
bc
bc
bc
bc
bc
bc
bc
bc
bc
bc
bc
bc
bc
bc
bc
bc
bc
bc
bc
bc
bc
bc
bc
bc
bc
bc
bc
bc
bc
bc
bc
bc
bc
bc
bc
bc
bc
bc
bc
bc
c0
c0
c0
c0
c0
c0
c0
c0
c0
c0
c0
c0
c0
c0
c0
c0
c0
c0
c0
c0
c0
c0
c0
c0
c0
c0
c0
c0
c0
c0
c0
c0
c0
c0
c0
c0
c0
c0
c0
c0
c0
c0
c0
c0
c0
c0
c0
c0
c0
c0
c0
c0
c0
c0
c0
c0
c0
c0
c0
c0
c0
c0
c0
c0
c0
c0
c0
c0
c0
c0
c0
c0
c0
c0
c0
c0
c0
c0
c0
c0
c0
c0
c0
c0
c0
c0
c0
c0
c0
c0
c0
c0
c0
c0
c0
c0
c0
c0
c4
c4
c4
c4
c4
c4
c4
c4
c4
c4
c4
c4
c4
c4
c4
c4
c4
c4
c4
c4
c4
c4
c4
c4
c4
c4
c4
c4
c4
c4
c4
c4
c4
c4
c4
c4
c4
c4
c4
c4
c4
c4
c4
c4
c4
c4
c4
c4
c4
c4
c4
c4
c4
c4
c4
c4
c4
c4
c4
c4
c4
c4
c4
c4
c4
c4
c4
c4
c4
c4
c4
c4
c4
c4
c4
c4
c4
c4
c4
c4
c4
c4
c4
c4
c4
c4
c4
c4
c4
c4
c4
c4
c4
c4
c4
c4
c4
c4
c8
c8
c8
c8
c8
c8
c8
c8
c8
c8
c8
c8
c8
c8
c8
c8
c8
c8
c8
c8
c8
c8
c8
c8
c8
c8
c8
c8
c8
c8
c8
c8
c8
c8
c8
c8
c8
c8
c8
c8
c8
c8
c8
c8
c8
c8
c8
c8
c8
c8
c8
c8
c8
c8
c8
c8
c8
c8
c8
c8
c8
c8
c8
c8
c8
c8
c8
c8
c8
c8
c8
c8
c8
c8
c8
c8
c8
c8
c8
c8
c8
c8
c8
c8
c8
c8
c8
c8
c8
c8
c8
c8
c8
c8
c8
c8
c8
c8
cc
cc
cc
cc
cc
cc
cc
cc
cc
cc
cc
cc
cc
cc
cc
cc
cc
cc
cc
cc
cc
cc
cc
cc
cc
cc
cc
cc
cc
cc
cc
cc
cc
cc
cc
cc
cc
cc
cc
cc
cc
cc
cc
cc
cc
cc
cc
cc
cc
cc
cc
cc
cc
cc
cc
cc
cc
cc
cc
cc
cc
cc
cc
cc
cc
cc
cc
cc
cc
cc
cc
cc
cc
cc
cc
cc
cc
cc
cc
cc
cc
cc
cc
cc
cc
cc
cc
cc
cc
cc
cc
cc
cc
cc
cc
cc
cc
cc
cf
cf
cf
cf
cf
cf
cf
cf
cf
cf
cf
cf
cf
cf
cf
cf
cf
cf
cf
cf
cf
cf
cf
cf
cf
cf
cf
cf
cf
cf
cf
cf
cf
cf
cf
cf
cf
cf
cf
cf
cf
cf
cf
cf
cf
cf
cf
cf
cf
cf
cf
cf
cf
cf
cf
cf
cf
cf
cf
cf
cf
cf
cf
cf
cf
cf
cf
cf
cf
cf
cf
cf
cf
cf
cf
cf
cf
cf
cf
cf
cf
cf
cf
cf
cf
cf
cf
cf
cf
cf
cf
cf
cf
cf
cf
cf
cf
cf
d3
d3
d3
d3
d3
d3
d3
d3
d3
d3
d3
d3
d3
d3
d3
d3
d3
d3
d3
d3
d3
d3
d3
d3
d3
d3
d3
d3
d3
d3
d3
d3
d3
d3
d3
d3
d3
d3
d3
d3
d3
d3
d3
d3
d3
d3
d3
d3
d3
d3
d3
d3
d3
d3
d3
d3
d3
d3
d3
d3
d3
d3
d3
d3
d3
d3
d3
d3
d3
d3
d3
d3
d3
d3
d3
d3
d3
d3
d3
d3
d3
d3
d3
d3
d3
d3
d3
d3
d3
d3
d3
d3
d3
d3
d3
d3
d3
d3
d7
d7
d7
d7
d7
d7
d7
d7
d7
d7
d7
d7
d7
d7
d7
d7
d7
d7
d7
d7
d7
d7
d7
d7
d7
d7
d7
d7
d7
d7
d7
d7
d7
d7
d7
d7
d7
d7
d7
d7
d7
d7
d7
d7
d7
d7
d7
d7
d7
d7
d7
d7
d7
d7
d7
d7
d7
d7
d7
d7
d7
d7
d7
d7
d7
d7
d7
d7
d7
d7
d7
d7
d7
d7
d7
d7
d7
d7
d7
d7
d7
d7
d7
d7
d7
d7
d7
d7
d7
d7
d7
d7
d7
d7
d7
d7
d7
d7
db
db
db
db
db
db
db
db
db
db
db
db
db
db
db
db
db
db
db
db
db
db
db
db
db
db
db
db
db
db
db
db
db
db
db
db
db
db
db
db
db
db
db
db
db
db
db
db
db
db
db
db
db
db
db
db
db
db
db
db
db
db
db
db
db
db
db
db
db
db
db
db
db
db
db
db
db
db
db
db
db
db
db
db
db
db
db
db
db
db
db
db
db
db
db
db
db
db
df
df
df
df
df
df
df
df
df
df
df
df
df
df
df
df
df
df
df
df
df
df
df
df
df
df
df
df
df
df
df
df
df
df
df
df
df
df
df
df
df
df
df
df
df
df
df
df
df
df
df
df
df
df
df
df
df
df
df
df
df
df
df
df
df
df
df
df
df
df
df
df
df
df
df
df
df
df
df
df
df
df
df
df
df
df
df
df
df
df
df
df
df
df
df
df
df
df
e3
e3
e3
e3
e3
e3
e3
e3
e3
e3
e3
e3
e3
e3
e3
e3
e3
e3
e3
e3
e3
e3
e3
e3
e3
e3
e3
e3
e3
e3
e3
e3
e3
e3
e3
e3
e3
e3
e3
e3
e3
e3
e3
e3
e3
e3
e3
e3
e3
e3
e3
e3
e3
e3
e3
e3
e3
e3
e3
e3
e3
e3
e3
e3
e3
e3
e3
e3
e3
e3
e3
e3
e3
e3
e3
e3
e3
e3
e3
e3
e3
e3
e3
e3
e3
e3
e3
e3
e3
e3
e3
e3
e3
e3
e3
e3
e3
e3
e7
e7
e7
e7
e7
e7
e7
e7
e7
e7
e7
e7
e7
e7
e7
e7
e7
e7
e7
e7
e7
e7
e7
e7
e7
e7
e7
e7
e7
e7
e7
e7
e7
e7
e7
e7
e7
e7
e7
e7
e7
e7
e7
e7
e7
e7
e7
e7
e7
e7
e7
e7
e7
e7
e7
e7
e7
e7
e7
e7
e7
e7
e7
e7
e7
e7
e7
e7
e7
e7
e7
e7
e7
e7
e7
e7
e7
e7
e7
e7
e7
e7
e7
e7
e7
e7
e7
e7
e7
e7
e7
e7
e7
e7
e7
e7
e7
e7
eb
eb
eb
eb
eb
eb
eb
eb
eb
eb
eb
eb
eb
eb
eb
eb
eb
eb
eb
eb
eb
eb
eb
eb
eb
eb
eb
eb
eb
eb
eb
eb
eb
eb
eb
eb
eb
eb
eb
eb
eb
eb
eb
eb
eb
eb
eb
eb
eb
eb
eb
eb
eb
eb
eb
eb
eb
eb
eb
eb
eb
eb
eb
eb
eb
eb
eb
eb
eb
eb
eb
eb
eb
eb
eb
eb
eb
eb
eb
eb
eb
eb
eb
eb
eb
eb
eb
eb
eb
eb
eb
eb
eb
eb
eb
eb
eb
eb
ef
ef
ef
ef
ef
ef
ef
ef
ef
ef
ef
ef
ef
ef
ef
ef
ef
ef
ef
ef
ef
ef
ef
ef
ef
ef
ef
ef
ef
ef
ef
ef
ef
ef
ef
ef
ef
ef
ef
ef
ef
ef
ef
ef
ef
ef
ef
ef
ef
ef
ef
ef
ef
ef
ef
ef
ef
ef
ef
ef
ef
ef
ef
ef
ef
ef
ef
ef
ef
ef
ef
ef
ef
ef
ef
ef
ef
ef
ef
ef
ef
ef
ef
ef
ef
ef
ef
ef
ef
ef
ef
ef
ef
ef
ef
ef
ef
ef
f3
f3
f3
f3
f3
f3
f3
f3
f3
f3
f3
f3
f3
f3
f3
f3
f3
f3
f3
f3
f3
f3
f3
f3
f3
f3
f3
f3
f3
f3
f3
f3
f3
f3
f3
f3
f3
f3
f3
f3
f3
f3
f3
f3
f3
f3
f3
f3
f3
f3
f3
f3
f3
f3
f3
f3
f3
f3
f3
f3
f3
f3
f3
f3
f3
f3
f3
f3
f3
f3
f3
f3
f3
f3
f3
f3
f3
f3
f3
f3
f3
f3
f3
f3
f3
f3
f3
f3
f3
f3
f3
f3
f3
f3
f3
f3
f3
f3
f7
f7
f7
f7
f7
f7
f7
f7
f7
f7
f7
f7
f7
f7
f7
f7
f7
f7
f7
f7
f7
f7
f7
f7
f7
f7
f7
f7
f7
f7
f7
f7
f7
f7
f7
f7
f7
f7
f7
f7
f7
f7
f7
f7
f7
f7
f7
f7
f7
f7
f7
f7
f7
f7
f7
f7
f7
f7
f7
f7
f7
f7
f7
f7
f7
f7
f7
f7
f7
f7
f7
f7
f7
f7
f7
f7
f7
f7
f7
f7
f7
f7
f7
f7
f7
f7
f7
f7
f7
f7
f7
f7
f7
f7
f7
f7
f7
f7
fb
fb
fb
fb
fb
fb
fb
fb
fb
fb
fb
fb
fb
fb
fb
fb
fb
fb
fb
fb
fb
fb
fb
fb
fb
fb
fb
fb
fb
fb
fb
fb
fb
fb
fb
fb
fb
fb
fb
fb
fb
fb
fb
fb
fb
fb
fb
fb
fb
fb
fb
fb
fb
fb
fb
fb
fb
fb
fb
fb
fb
fb
fb
fb
fb
fb
fb
fb
fb
fb
fb
fb
fb
fb
fb
fb
fb
fb
fb
fb
fb
fb
fb
fb
fb
fb
fb
fb
fb
fb
fb
fb
fb
fb
fb
fb
fb
fb
ff
ff
ff
ff
ff
ff
ff
ff
ff
ff
ff
ff
ff
ff
ff
ff
ff
ff
ff
ff
ff
ff
ff
ff
ff
ff
ff
ff
ff
ff
ff
ff
ff
ff
ff
ff
ff
ff
ff
ff
ff
ff
ff
ff
ff
ff
ff
ff
ff
ff
ff
ff
ff
ff
ff
ff
ff
ff
ff
ff
ff
ff
ff
ff
ff
ff
ff
ff
ff
ff
ff
ff
ff
ff
ff
ff
ff
ff
ff
ff
ff
ff
ff
ff
ff
ff
ff
ff
ff
ff
ff
ff
ff
ff
ff
ff
ff
ff
